public/new/svg8.svg

<svg fill="none" height="28" viewBox="0 0 28 28" width="28" xmlns="http://www.w3.org/2000/svg"><g fill="#77787e"><path d="m14 17c-.394 0-.7841-.0776-1.1481-.2284-.3639-.1507-.6946-.3717-.9732-.6503s-.4996-.6093-.6503-.9732c-.1508-.364-.2284-.7541-.2284-1.1481s.0776-.7841.2284-1.1481c.1507-.3639.3717-.6946.6503-.9732s.6093-.4996.9732-.6503c.364-.1508.7541-.2284 1.1481-.2284.7956 0 1.5587.3161 2.1213.8787s.8787 1.3257.8787 2.1213-.3161 1.5587-.8787 2.1213-1.3257.8787-2.1213.8787zm0-1c.5304 0 1.0391-.2107 1.4142-.5858s.5858-.8838.5858-1.4142-.2107-1.0391-.5858-1.4142-.8838-.5858-1.4142-.5858-1.0391.2107-1.4142.5858-.5858.8838-.5858 1.4142.2107 1.0391.5858 1.4142.8838.5858 1.4142.5858z"/><path clip-rule="evenodd" d="m5.00505 16c-.13231.0003-.26336-.0256-.3856-.0762-.12225-.0506-.23328-.1249-.3267-.2186-.09341-.0937-.16737-.205-.2176-.3274-.05024-.1224-.07576-.2535-.0751-.3858v-1.984c-.00132-.1321.02358-.2631.07327-.3855.04968-.1223.12316-.2336.21618-.3274.09302-.0937.20372-.1681.32569-.2188.12197-.0506.25279-.0766.38486-.0763h1.252c.18513-.7237.47235-1.4173.853-2.06l-.919-.925c-.356-.397-.348-1 .03-1.379l1.42-1.42c.09335-.09267.20407-.16601.32581-.21582.12174-.04982.25211-.07512.38364-.07447.13154.00065.26165.02724.38289.07826.12124.05101.23123.12544.32366.21903l.889.882c.64295-.37914 1.33615-.66595 2.05905-.852v-1.253c0-.514.46-1 1-1h2c.557 0 1 .44 1 1v1.253c.7232.18597 1.4166.47278 2.06.852l.888-.882c.0924-.09352.2025-.16788.3238-.2188.1212-.05093.2514-.07743.3829-.07799s.2619.02484.3836.07474.2324.12332.3256.21605l1.42 1.42c.1806.18196.2844.42639.2898.6827.0054.25632-.088.5049-.2608.6943 0 0-.4.406-.9179.926.3806.6427.6678 1.3363.8529 2.06h1.252c.557 0 1 .447 1 1.008v1.984c.0014.1321-.0235.2631-.0732.3855-.0497.1223-.1232.2336-.2162.3274-.093.0937-.2037.1681-.3257.2188-.122.0506-.2528.0766-.3849.0763h-1.252c-.1851.7237-.4723 1.4173-.8529 2.06l.882.888c.0935.0925.1678.2025.2188.3238.0509.1213.0774.2514.0779.383.0006.1315-.0248.2618-.0747.3835-.0499.1218-.1233.2324-.216.3257l-1.42 1.42c-.0934.0925-.204.1657-.3257.2155-.1216.0497-.2519.0749-.3833.0743-.1314-.0007-.2614-.0272-.3826-.0781-.1211-.051-.231-.1253-.3234-.2187l-.889-.882c-.643.3791-1.3362.6659-2.059.852v1.248c0 .56-.4501 1.005-1.008 1.005h-1.984c-.1323.0005-.2634-.0251-.3857-.0754-.1224-.0503-.2336-.1242-.3272-.2176-.0937-.0934-.168-.2044-.2186-.3266-.0507-.1221-.0767-.2531-.0765-.3854v-1.248c-.7233-.186-1.4167-.4728-2.06005-.852l-.888.882c-.0925.0935-.20253.1679-.32381.2188s-.25141.0774-.38295.078c-.13153.0005-.26188-.0248-.38359-.0747-.1217-.0499-.23236-.1234-.32565-.2161l-1.42-1.42c-.09252-.0933-.16573-.204-.21546-.3256-.04972-.1217-.07498-.2519-.07433-.3834.00065-.1314.0272-.2614.07812-.3825.05093-.1212.12523-.2311.21867-.3235l.882-.888c-.38065-.6427-.66787-1.3363-.853-2.06zm3.378-6.193-.227.34c-.49463.744-.83972 1.5772-1.016 2.453l-.082.4h-2.053c-.003 0-.005.664-.005 1.992 0 .005.686.008 2.058.008l.082.4c.18.883.52 1.71 1.016 2.453l.227.34-1.45 1.46c-.004.003.466.477 1.41 1.422l1.464-1.458.34005.227c.7451.4931 1.5783.838 2.454 1.016l.399.083v2.052c0 .003.664.005 1.992.005.005 0 .008-.686.008-2.057l.399-.083c.8756-.178 1.7088-.5229 2.454-1.016l.34-.227 1.46 1.45c.003.004.477-.466 1.422-1.41l-1.458-1.464.227-.34c.4946-.744.8397-1.5772 1.016-2.453l.0819-.4h2.0531c.003 0 .0049-.664.0049-1.992 0-.005-.686-.008-2.058-.008l-.0819-.4c-.1763-.8758-.5214-1.709-1.016-2.453l-.227-.34 1.3759-1.384.081-.082-1.4159-1.416-1.465 1.458-.34-.227c-.7452-.49307-1.5784-.83802-2.454-1.016l-.399-.083v-2.057c0-.003-.664-.003-1.992 0-.005 0-.008.686-.008 2.057l-.399.083c-.8757.17798-1.7089.52293-2.454 1.016l-.34005.227-1.46-1.45c-.003-.004-.477.466-1.421 1.408z" fill-rule="evenodd"/></g></svg>

<svg width="28" height="28" viewBox="0 0 28 28" fill="none" xmlns="http://www.w3.org/2000/svg">
<path d="M14 17C13.606 17 13.2159 16.9224 12.8519 16.7716C12.488 16.6209 12.1573 16.3999 11.8787 16.1213C11.6001 15.8427 11.3791 15.512 11.2284 15.1481C11.0776 14.7841 11 14.394 11 14C11 13.606 11.0776 13.2159 11.2284 12.8519C11.3791 12.488 11.6001 12.1573 11.8787 11.8787C12.1573 11.6001 12.488 11.3791 12.8519 11.2284C13.2159 11.0776 13.606 11 14 11C14.7956 11 15.5587 11.3161 16.1213 11.8787C16.6839 12.4413 17 13.2044 17 14C17 14.7956 16.6839 15.5587 16.1213 16.1213C15.5587 16.6839 14.7956 17 14 17ZM14 16C14.5304 16 15.0391 15.7893 15.4142 15.4142C15.7893 15.0391 16 14.5304 16 14C16 13.4696 15.7893 12.9609 15.4142 12.5858C15.0391 12.2107 14.5304 12 14 12C13.4696 12 12.9609 12.2107 12.5858 12.5858C12.2107 12.9609 12 13.4696 12 14C12 14.5304 12.2107 15.0391 12.5858 15.4142C12.9609 15.7893 13.4696 16 14 16Z" fill="#77787E"/>
<path fill-rule="evenodd" clip-rule="evenodd" d="M5.00505 16C4.87274 16.0003 4.74169 15.9744 4.61945 15.9238C4.4972 15.8732 4.38617 15.7989 4.29275 15.7052C4.19934 15.6115 4.12538 15.5002 4.07515 15.3778C4.02491 15.2554 3.99939 15.1243 4.00005 14.992V13.008C3.99873 12.8759 4.02363 12.7449 4.07332 12.6225C4.123 12.5002 4.19648 12.3889 4.2895 12.2951C4.38252 12.2014 4.49322 12.127 4.61519 12.0763C4.73716 12.0257 4.86798 11.9997 5.00005 12H6.25205C6.43718 11.2763 6.7244 10.5827 7.10505 9.94L6.18605 9.015C5.83005 8.618 5.83805 8.015 6.21605 7.636L7.63605 6.216C7.7294 6.12333 7.84012 6.04999 7.96186 6.00018C8.0836 5.95036 8.21397 5.92506 8.3455 5.92571C8.47704 5.92636 8.60715 5.95295 8.72839 6.00397C8.84963 6.05498 8.95962 6.12941 9.05205 6.223L9.94105 7.105C10.584 6.72586 11.2772 6.43905 12.0001 6.253V5C12.0001 4.486 12.4601 4 13.0001 4H15.0001C15.5571 4 16.0001 4.44 16.0001 5V6.253C16.7233 6.43897 17.4167 6.72578 18.0601 7.105L18.9481 6.223C19.0405 6.12948 19.1506 6.05512 19.2719 6.0042C19.3931 5.95327 19.5233 5.92677 19.6548 5.92621C19.7863 5.92565 19.9167 5.95105 20.0384 6.00095C20.1601 6.05085 20.2708 6.12427 20.364 6.217L21.784 7.637C21.9646 7.81896 22.0684 8.06339 22.0738 8.3197C22.0792 8.57602 21.9858 8.8246 21.813 9.014C21.813 9.014 21.413 9.42 20.8951 9.94C21.2757 10.5827 21.5629 11.2763 21.748 12H23C23.557 12 24 12.447 24 13.008V14.992C24.0014 15.1241 23.9765 15.2551 23.9268 15.3775C23.8771 15.4998 23.8036 15.6111 23.7106 15.7049C23.6176 15.7986 23.5069 15.873 23.3849 15.9237C23.2629 15.9743 23.1321 16.0003 23 16H21.748C21.5629 16.7237 21.2757 17.4173 20.8951 18.06L21.7771 18.948C21.8706 19.0405 21.9449 19.1505 21.9959 19.2718C22.0468 19.3931 22.0733 19.5232 22.0738 19.6548C22.0744 19.7863 22.049 19.9166 21.9991 20.0383C21.9492 20.1601 21.8758 20.2707 21.7831 20.364L20.3631 21.784C20.2697 21.8765 20.1591 21.9497 20.0374 21.9995C19.9158 22.0492 19.7855 22.0744 19.6541 22.0738C19.5227 22.0731 19.3927 22.0466 19.2715 21.9957C19.1504 21.9447 19.0405 21.8704 18.9481 21.777L18.0591 20.895C17.4161 21.2741 16.7229 21.5609 16.0001 21.747V22.995C16.0001 23.555 15.55 24 14.9921 24H13.0081C12.8758 24.0005 12.7447 23.9749 12.6224 23.9246C12.5 23.8743 12.3888 23.8004 12.2952 23.707C12.2015 23.6136 12.1272 23.5026 12.0766 23.3804C12.0259 23.2583 11.9999 23.1273 12.0001 22.995V21.747C11.2768 21.561 10.5834 21.2742 9.94005 20.895L9.05205 21.777C8.95955 21.8705 8.84952 21.9449 8.72824 21.9958C8.60696 22.0467 8.47683 22.0732 8.34529 22.0738C8.21376 22.0743 8.08341 22.049 7.9617 21.9991C7.84 21.9492 7.72934 21.8757 7.63605 21.783L6.21605 20.363C6.12353 20.2697 6.05032 20.159 6.00059 20.0374C5.95087 19.9157 5.92561 19.7855 5.92626 19.654C5.92691 19.5226 5.95346 19.3926 6.00438 19.2715C6.05531 19.1503 6.12961 19.0404 6.22305 18.948L7.10505 18.06C6.7244 17.4173 6.43718 16.7237 6.25205 16H5.00505ZM8.38305 9.807L8.15605 10.147C7.66142 10.891 7.31633 11.7242 7.14005 12.6L7.05805 13H5.00505C5.00205 13 5.00005 13.664 5.00005 14.992C5.00005 14.997 5.68605 15 7.05805 15L7.14005 15.4C7.32005 16.283 7.66005 17.11 8.15605 17.853L8.38305 18.193L6.93305 19.653C6.92905 19.656 7.39905 20.13 8.34305 21.075L9.80705 19.617L10.1471 19.844C10.8922 20.3371 11.7254 20.682 12.6011 20.86L13.0001 20.943V22.995C13.0001 22.998 13.6641 23 14.9921 23C14.9971 23 15.0001 22.314 15.0001 20.943L15.3991 20.86C16.2747 20.682 17.1079 20.3371 17.8531 19.844L18.1931 19.617L19.6531 21.067C19.6561 21.071 20.1301 20.601 21.0751 19.657L19.6171 18.193L19.8441 17.853C20.3387 17.109 20.6838 16.2758 20.8601 15.4L20.942 15H22.9951C22.9981 15 23 14.336 23 13.008C23 13.003 22.314 13 20.942 13L20.8601 12.6C20.6838 11.7242 20.3387 10.891 19.8441 10.147L19.6171 9.807L20.993 8.423L21.074 8.341L19.6581 6.925L18.1931 8.383L17.8531 8.156C17.1079 7.66293 16.2747 7.31798 15.3991 7.14L15.0001 7.057V5C15.0001 4.997 14.3361 4.997 13.0081 5C13.0031 5 13.0001 5.686 13.0001 7.057L12.6011 7.14C11.7254 7.31798 10.8922 7.66293 10.1471 8.156L9.80705 8.383L8.34705 6.933C8.34405 6.929 7.87005 7.399 6.92605 8.341L8.38305 9.807Z" fill="#77787E"/>
</svg>
